app/assets/images/heroicons/micro/phone.svg

<svg width="16" height="16" viewBox="0 0 16 16" fill="none" xmlns="http://www.w3.org/2000/svg">
<path fill-rule="evenodd" clip-rule="evenodd" d="M3.85462 7.28621L4.92241 6.75232C5.31094 6.55805 5.52962 6.13518 5.46357 5.70584L5.02389 2.84794C4.94884 2.36011 4.52909 2 4.03552 2H3C2.44772 2 2 2.44772 2 3V5C2 5.70879 2.08208 6.39936 2.23758 7.06237C3.01505 10.3773 5.62265 12.985 8.93763 13.7624C9.60064 13.9179 10.2912 14 11 14H13C13.5523 14 14 13.5523 14 13V11.9645C14 11.4709 13.6399 11.0512 13.1521 10.9761L10.2942 10.5364C9.86482 10.4704 9.44195 10.6891 9.24768 11.0776L8.71379 12.1454C6.4109 11.4092 4.59083 9.58911 3.85462 7.28621Z" fill="black"/>
</svg>

<svg xmlns="http://www.w3.org/2000/svg" viewBox="0 0 16 16" fill="currentColor" aria-hidden="true" data-slot="icon">
  <path fill-rule="evenodd" d="m3.855 7.286 1.067-.534a1 1 0 0 0 .542-1.046l-.44-2.858A1 1 0 0 0 4.036 2H3a1 1 0 0 0-1 1v2c0 .709.082 1.4.238 2.062a9.012 9.012 0 0 0 6.7 6.7A9.024 9.024 0 0 0 11 14h2a1 1 0 0 0 1-1v-1.036a1 1 0 0 0-.848-.988l-2.858-.44a1 1 0 0 0-1.046.542l-.534 1.067a7.52 7.52 0 0 1-4.86-4.859Z" clip-rule="evenodd"/>
</svg>
